images/icons/in.svg

<svg width="18" height="16" viewBox="0 0 18 16" fill="none" xmlns="http://www.w3.org/2000/svg">
<path d="M3.97111 5.13143H0.463882V16H3.97111V5.13143Z" fill="white"/>
<path d="M2.14369 0C0.850449 0 0 0.809869 0 1.88516C0 2.94003 0.822335 3.77031 2.09449 3.77031H2.12261C3.44397 3.77031 4.2663 2.93322 4.25927 1.88516C4.23116 0.809869 3.43694 0 2.14369 0Z" fill="white"/>
<path d="M13.551 5.02935C11.5408 5.02935 10.2827 6.09102 10.0508 6.83964V5.13143H6.10777C6.15697 6.03658 6.10777 16 6.10777 16H10.0508V10.1268C10.0508 9.79328 10.0367 9.46661 10.1351 9.23522C10.4022 8.58188 10.9856 7.90132 12.0328 7.90132C13.4034 7.90132 14.0219 8.90855 14.0219 10.3786V16H18V9.95662C18 6.59464 16.0461 5.02935 13.551 5.02935Z" fill="white"/>
</svg>

<svg width="18" height="16" fill="none" xmlns="http://www.w3.org/2000/svg"><path d="M3.971 5.131H.464V16H3.97V5.131ZM2.144 0C.85 0 0 .81 0 1.885 0 2.94.822 3.77 2.094 3.77h.029c1.321 0 2.143-.837 2.136-1.885C4.231.81 3.437 0 2.144 0ZM13.551 5.03c-2.01 0-3.268 1.061-3.5 1.81V5.13H6.108c.049.906 0 10.869 0 10.869h3.943v-5.873c0-.334-.014-.66.084-.892.267-.653.85-1.334 1.898-1.334 1.37 0 1.989 1.008 1.989 2.478V16H18V9.957c0-3.362-1.954-4.928-4.449-4.928Z" fill="#fff"/></svg>
